Icons/TM_Icons/more icons/computer-windows.svg

<?xml version='1.0' encoding='utf-8'?>
<ns0:svg xmlns:ns0="http://www.w3.org/2000/svg" version="1.1" viewBox="100.0 -191.0 1918.0 1918.0" role="img" focusable="false" preserveAspectRatio="xMidYMid meet">
   <ns0:path fill="currentColor" d="M168 -615v59l-68 28v-58zM161 -424v53l-55 25v-52zM161 -232v52l-55 25v-52zM168 -43v59l-68 28v-57zM161 156v51l-55 25v-52zM161 350v52l-55 25v-51zM168 537v60l-68 28v-57zM340 -582v69l-92 35v-68zM335 -382v63l-74 29v-63zM335 -189v62l-74 29v-64zM340 -3v68 l-92 36v-68zM335 197v62l-74 30v-64zM335 392v62l-74 30v-63zM340 579v68l-92 38v-68zM512 -539v82l-119 47v-81zM506 -338v73l-100 39v-71zM506 -145v72l-100 40v-72zM512 40v82l-119 47v-81zM506 241v72l-100 41v-72zM506 428v74l-100 40v-72zM512 615v82l-119 48v-82z M700 -544v108l-149 60v-107zM692 -343v99l-125 51v-99zM692 -150v98l-125 51v-99zM700 36v108l-149 59v-108zM692 237v99l-125 50v-99zM692 424v99l-125 50v-98zM700 610v108l-149 60v-107zM897 -562v141l-166 68v-141zM889 -350v118l-142 57v-119zM889 -166v119l-142 56 v-118zM897 17v141l-166 67v-141zM889 228v120l-142 55v-118zM889 416v119l-142 57v-119zM897 592v141l-166 67v-141zM1098 -633v193l-177 74v-180c61.333 -35.3301 120.33 -64.3301 177 -87zM1098 -420v167l-177 75v-168zM1098 -232v169l-177 75v-169zM1098 -42v167l-177 75 v-168zM1098 146v172l-177 76v-173zM1098 339v168l-177 77v-170zM1098 528v180c-69.3301 26.667 -128.333 52.333 -177 77v-181zM2018 -626v1351c-114 -74.667 -256.33 -112 -427 -112c-141.33 0 -299.33 29.333 -474 88v-180c92.6699 -36.667 194.67 -63 306 -79v-440 c-94 12.001 -196 44.668 -306 98v-129c95.3301 -44 197.33 -74 306 -90v-427c-98 18.6699 -200 50.3398 -306 95v-190c155.33 -63.3398 307.67 -95 457 -95c160.67 0 308.67 36.6699 444 110zM1841 -505c-74 -37.3398 -162.67 -56.0098 -266 -56c-12 0 -24 0.669922 -36 2 v432l40 -1c88.6699 0 176 14 262 42v-419zM1841 42c-79.3301 -34.6689 -167.33 -52.002 -264 -52c-12 0.0253906 -24.6699 0.691406 -38 2v440h40c96.6699 0 184 12 262 36v-426zM1957 780v-29h-12v-5h29v5h-12v29h-5zM1978 780v-34h8l12 26l12 -26h8v34h-5v-28l-12 26h-6 l-12 -26v28h-5z" />
</ns0:svg>

<svg xmlns="http://www.w3.org/2000/svg" width="400" height="200" viewBox="-477 -736 3072 1536"><path fill="currentColor" d="M168-615v59l-68 28v-58zm-7 191v53l-55 25v-52zm0 192v52l-55 25v-52zm7 189v59l-68 28v-57zm-7 199v51l-55 25v-52zm0 194v52l-55 25v-51zm7 187v60l-68 28v-57zM340-582v69l-92 35v-68zm-5 200v63l-74 29v-63zm0 193v62l-74 29v-64zm5 186v68l-92 36V33zm-5 200v62l-74 30v-64zm0 195v62l-74 30v-63zm5 187v68l-92 38v-68zM512-539v82l-119 47v-81zm-6 201v73l-100 39v-71zm0 193v72L406-33v-72zm6 185v82l-119 47V88zm-6 201v72l-100 41v-72zm0 187v74l-100 40v-72zm6 187v82l-119 48v-82zM700-544v108l-149 60v-107zm-8 201v99l-125 51v-99zm0 193v98L567-1v-99zm8 186v108l-149 59V95zm-8 201v99l-125 50v-99zm0 187v99l-125 50v-98zm8 186v108l-149 60V671zM897-562v141l-166 68v-141zm-8 212v118l-142 57v-119zm0 184v119L747 9v-118zm8 183v141l-166 67V84zm-8 211v120l-142 55V285zm0 188v119l-142 57V473zm8 176v141l-166 67V659zm201-1225v193l-177 74v-180c61.333-35.33 120.33-64.33 177-87m0 213v167l-177 75v-168zm0 188v169L921 12v-169zm0 190v167l-177 75V32zm0 188v172l-177 76V221zm0 193v168l-177 77V414zm0 189v180c-69.33 26.667-128.333 52.333-177 77V604zm920-1154V725c-114-74.667-256.33-112-427-112q-211.995 0-474 88V521q139.005-55 306-79V2q-141 18.002-306 98V-29q142.995-66 306-90v-427c-98 18.67-200 50.34-306 95v-190c155.33-63.34 307.67-95 457-95 160.67 0 308.67 36.67 444 110m-177 121c-74-37.34-162.67-56.01-266-56-12 0-24 .67-36 2v432l40-1c88.67 0 176 14 262 42zm0 547q-118.995-52.003-264-52c-12 .025-24.67.691-38 2v440h40c96.67 0 184 12 262 36zm116 738v-29h-12v-5h29v5h-12v29zm21 0v-34h8l12 26 12-26h8v34h-5v-28l-12 26h-6l-12-26v28z"/></svg>
